X: 11
T: Tout a par moy I
N: Derived from Agr4024-Tout_a_par_moy_I.krn
C: Alexander Agricola
%%abc-version 2.0
%%abcx-abcm2ps-target-version 5.9.1 (29 Sep 2008)
%%abc-creator hum2abc beta
%%abcx-conversion-date 2019/02/16 20:17:15
%%abc-edited-by Jesse Rodin
%%abc-edited-by Chris Gage 04-05-2017
%%abcx-initial-encoding-date 2018/01/11/
%%humdrum-veritas 1923150324
%%humdrum-veritas-data 1603378700
%%linebreak <none>
%%barnumbers 0
L: 1/4
M: 2/1
Q: 1/2=120
%%staves [1 2 3 4]
V: 1 clef=treble
V: 2 clef=treble-8
V: 3 clef=treble-8
V: 4 clef=bass
K: F
[V:1] A4A4 | 
[V:2] d8 :
[V:3] z8 | 
[V:4] D,4F,4 | 
[V:1] B4A4 | 
[V:2] d8 :
[V:3] z8 | 
[V:4] G,4F,3E, | 
[V:1] c8 | 
[V:2] e8 | 
[V:3] z8 | 
[V:4] C,8 | 
[V:1] B4A2A2- | 
[V:2] d8 :
[V:3] z8 | 
[V:4] G,4F,4 | 
[V:1] AGFED4- | 
[V:2] f8- :
[V:3] A4A4 | 
[V:4] D,6C,2 | 
[V:1] D2E2F4 | 
[V:2] f8 | 
[V:3] B4A4 | 
[V:4] B,,4D,4 | 
[V:1] G8 | 
[V:2] e8 :
[V:3] c8 | 
[V:4] C,8 | 
[V:1] G4A4 | 
[V:2] d8- :
[V:3] B4A2A2- | 
[V:4] G,4F,3E, | 
[V:1] F3GABA2- | 
[V:2] d8 | 
[V:3] AGFED4 | 
[V:4] D,C,D,3E,F,2- | 
[V:1] A2GFE4 | 
[V:2] c8 :
[V:3] A4A4 | 
[V:4] F,2E,D,C,4 | 
[V:1] D4A4- | 
[V:2] d8 :
[V:3] B4A4 | 
[V:4] B,,3C,D,E,F,2- | 
[V:1] A2GFE2A2- | 
[V:2] A8 | 
[V:3] c8 | 
[V:4] F,2E,D,C,2F,2 | 
[V:1] A2G2A4 | 
[V:2] z4d4 :
[V:3] B4A4 | 
[V:4] G,4D,3E, | 
[V:1] A,3B,C2D2- | 
[V:2] c4A4 :
[V:3] A2A3GFE | 
[V:4] F,2F,3E,D,C, | 
[V:1] DEF4E2 | 
[V:2] B8 | 
[V:3] D4z4 | 
[V:4] B,,3A,,G,,4 | 
[V:1] F6ED | 
[V:2] A8- :
[V:3] z8 | 
[V:4] F,,8 | 
[V:1] C2FEFGA2- | 
[V:2] A8 :
[V:3] A4A4 | 
[V:4] F,8 | 
[V:1] A2G2A4- | 
[V:2] E4F4 | 
[V:3] B4A4 | 
[V:4] z4F,4- | 
[V:1] A2GFEDF2- | 
[V:2] A8 :
[V:3] c8 | 
[V:4] F,2E,D,C,2F,,2 | 
[V:1] F2E3DD2- | 
[V:2] G4F4 :
[V:3] B4A4 | 
[V:4] G,,A,,B,,C,D,4 | 
[V:1] D2^C=B,C4 | 
[V:2] E8 | 
[V:3] A4A2A2- | 
[V:4] A,,8 | 
[V:1] D4z2F2- | 
[V:2] D8- :
[V:3] AGFED4 | 
[V:4] z2A,3G,F,E, | 
[V:1] FGFE/D/C2F2 | 
[V:2] D8 :
[V:3] A8 | 
[V:4] D,2F,3E,D,C, | 
[V:1] D2G3F/G/FE/D/ | 
[V:2] z8 | 
[V:3] B4A4 | 
[V:4] B,,2G,,2D,4 | 
[V:1] E4z2G2 | 
[V:2] G8 :
[V:3] c4B4 | 
[V:4] C,2B,,A,,G,,4 | 
[V:1] A2c3BAG | 
[V:2] F4F4- :
[V:3] A2A3GFE | 
[V:4] z8 | 
[V:1] FED4d2 | 
[V:2] F4D4 | 
[V:3] D8 | 
[V:4] D,3E,F,4 | 
[V:1] B2c3BAG | 
[V:2] E8 :
[V:3] z8 | 
[V:4] G,2C,4C2 | 
[V:1] FEG4^F2 | 
[V:2] D8 :
[V:3] z8 | 
[V:4] D2CB,A,G,A,2 | 
[V:1] G6FE | 
[V:2] d8- | 
[V:3] z8 | 
[V:4] G,2B,4A,G, | 
[V:1] F2G4^F2 | 
[V:2] d8 :
[V:3] D4D4 | 
[V:4] A,2B,2A,2D,2 | 
[V:1] G2G,2A,4 | 
[V:2] G4d4- :
[V:3] E4D4 | 
[V:4] z2G,4^F,2 | 
[V:1] G,2G,4^F,E, | 
[V:2] d4c4- | 
[V:3] z8 | 
[V:4] G,2G,,2A,,4- | 
[V:1] ^F,4G,4 | 
[V:2] c4B4- :
[V:3] z4D4 | 
[V:4] A,,4G,,4- | 
[V:1] z2G4^FE | 
[V:2] B4G4 :
[V:3] D4E4 | 
[V:4] G,,4z4 | 
[V:1] ^F4G2G,2- | 
[V:2] A4G4 | 
[V:3] D4z4 | 
[V:4] z2D,2E,4 | 
[V:1] G,2F,2G,A,B,C | 
[V:2] d6c2 :
[V:3] z4D4 | 
[V:4] D,4G,,4 | 
[V:1] DEFE/F/G4- | 
[V:2] B4G4 :
[V:3] D4_E4 | 
[V:4] z2D4C2 | 
[V:1] G2^FEF4 | 
[V:2] A8 | 
[V:3] D8 | 
[V:4] D4z2D,2 | 
[V:1] G4z2D2- | 
[V:2] G8 :
[V:3] z4D4 | 
[V:4] _E,2D,C,B,,2G,,2 | 
[V:1] DCB,4A,2 | 
[V:2] z8 :
[V:3] D4_E4 | 
[V:4] B,,2D,2C,4 | 
[V:1] B,2D4CB, | 
[V:2] B8 | 
[V:3] D4z4 | 
[V:4] B,,4G,,4 | 
[V:1] C4D2F2- | 
[V:2] A4A4- :
[V:3] z4D4 | 
[V:4] A,,4z2D,2- | 
[V:1] FED4^C2 | 
[V:2] A4G4 :
[V:3] D4=E4 | 
[V:4] D,E,F,2E,2G,2 | 
[V:1] D2D2F4- | 
[V:2] A8 | 
[V:3] D4z4 | 
[V:4] F,6E,D, | 
[V:1] F2EDFEA2- | 
[V:2] z4d4- :
[V:3] A4A4 | 
[V:4] D,8 | 
[V:1] A2G2A4- | 
[V:2] d4c4 :
[V:3] B4A4 | 
[V:4] z4F,4 | 
[V:1] A2GFG4 | 
[V:2] B8 | 
[V:3] z8 | 
[V:4] G,4_E,4 | 
[V:1] A3GF2E2 | 
[V:2] A8 :
[V:3] z8 | 
[V:4] F,3=E,D,2C,2 | 
[V:1] F4F3E | 
[V:2] d8- :
[V:3] z4A4 | 
[V:4] B,,4z2D,2- | 
[V:1] F4G4 | 
[V:2] d8 | 
[V:3] A4B4 | 
[V:4] D,C,B,,A,,G,,A,,B,,C, | 
[V:1] (3:2:5A4A,2A,3B,C2 | 
[V:2] c8 :
[V:3] A8 | 
[V:4] F,,4F,4 | 
[V:1] (3D2E2F2(3G2A2B2 | 
[V:2] B4G4 :
[V:3] z8 | 
[V:4] z4_E,4 | 
[V:1] (3:2:7c3B A GG2E2^F2 | 
[V:2] A8 | 
[V:3] z8 | 
[V:4] C,4D,4 | 
[V:1] G4z2G2 | 
[V:2] G8 :
[V:3] z8 | 
[V:4] _E,8 | 
[V:1] F3EFEA2- | 
[V:2] d8- :
[V:3] A4A4 | 
[V:4] D,8 | 
[V:1] A2G2A3G | 
[V:2] d4e4 | 
[V:3] B4A4 | 
[V:4] z8 | 
[V:1] F2EDE4 | 
[V:2] d4c4 :
[V:3] z8 | 
[V:4] B,,4C,4 | 
[V:1] D4G4- | 
[V:2] B8 :
[V:3] z8 | 
[V:4] G,,8 | 
[V:1] G2FEF3G | 
[V:2] A8 | 
[V:3] z8 | 
[V:4] D,8 | 
[V:1] E8- | 
[V:2] c8- :
[V:3] z4G4 | 
[V:4] C,8- | 
[V:1] E8- | 
[V:2] c8- :
[V:3] G4A4 | 
[V:4] C,8- | 
[V:1] E8 ||  
[V:2] c8 ||  
[V:3] G8 ||  
[V:4] C,8 ||  
[V:1]  [K:F] [K:clef=treble][M:2/1]F4D4 | 
[V:2]  [K:F] [K:clef=treble-8][M:2/1]z8 :
[V:3]  [K:F] [K:clef=treble-8][M:2/1]z8 | 
[V:4]  [K:F] [K:clef=bass][M:2/1]D,6C,B,, | 
[V:1] E4D4 | 
[V:2] z8 :
[V:3] z4F4 | 
[V:4] C,2A,,2B,,2D,2- | 
[V:1] z2D4C2 | 
[V:2] z8 | 
[V:3] D4E4 | 
[V:4] D,C,B,,A,,G,,2A,,2 | 
[V:1] D3EFGAG/A/ | 
[V:2] f8 :
[V:3] D8 | 
[V:4] B,,3C,D,E,F,2 | 
[V:1] B2F3ED2- | 
[V:2] d8 :
[V:3] z8 | 
[V:4] G,2B,2F,2B,2- | 
[V:1] D2^C=B,C4 | 
[V:2] e8 | 
[V:3] z8 | 
[V:4] B,2A,G,A,4 | 
[V:1] D6CB, | 
[V:2] d8 :
[V:3] z4F4- | 
[V:4] B,4B,,3C, | 
[V:1] A,4z2B,2 | 
[V:2] f8 :
[V:3] F4D4 | 
[V:4] D,4B,,4 | 
[V:1] C2A,4G,2 | 
[V:2] c4d4 | 
[V:3] E4D4 | 
[V:4] A,,2C,2B,,4 | 
[V:1] A,3B,/C/D2C2 | 
[V:2] c4f4- :
[V:3] z8 | 
[V:4] A,,2F,,3G,,A,,2 | 
[V:1] D2B,4A,2 | 
[V:2] f4e4 :
[V:3] z8 | 
[V:4] B,,2D,2C,4 | 
[V:1] B,2B4A2 | 
[V:2] d4e4 | 
[V:3] z8 | 
[V:4] B,,2D,2C,4 | 
[V:1] B2AGF2G2 | 
[V:2] d6c2 :
[V:3] z8 | 
[V:4] B,,3C,D,2E,2 | 
[V:1] A4z2A2 | 
[V:2] A4d4- :
[V:3] F8 | 
[V:4] F,2D,3E,F,2 | 
[V:1] GFG2A4 | 
[V:2] d4^c4 | 
[V:3] D4E4 | 
[V:4] B,,4A,,4 | 
[V:1] F3EDCB,2- | 
[V:2] d8- :
[V:3] D8 | 
[V:4] D,3E,F,2G,2- | 
[V:1] B,2A,G,A,2B,2 | 
[V:2] d8 :
[V:3] z8 | 
[V:4] G,2F,E,F,2G,2 | 
[V:1] C4F,4 | 
[V:2] A8- | 
[V:3] F8 | 
[V:4] A,2C3B,A,G, | 
[V:1] z4C4 | 
[V:2] A8 :
[V:3] D4E4 | 
[V:4] F,2E,D,C,4 | 
[V:1] D3EFGF2- | 
[V:2] B8 :
[V:3] D8 | 
[V:4] B,,8- | 
[V:1] FEDCD2G2- | 
[V:2] B8 | 
[V:3] z8 | 
[V:4] B,,4G,,4 | 
[V:1] G2^FEF4 | 
[V:2] A8 :
[V:3] z4F4 | 
[V:4] D,8 | 
[V:1] G6FE | 
[V:2] G8 :
[V:3] D4E4 | 
[V:4] G,,4C,4 | 
[V:1] F4E2DC | 
[V:2] z4c4 | 
[V:3] D4z4 | 
[V:4] B,,4C,4 | 
[V:1] D4C2F2- | 
[V:2] B4A4- :
[V:3] z4F4 | 
[V:4] G,,4z4 | 
[V:1] FED4^C2 | 
[V:2] A4G4 :
[V:3] D4E4 | 
[V:4] F,4G,4 | 
[V:1] D4F4 | 
[V:2] F8 | 
[V:3] D4z4 | 
[V:4] A,6G,F, | 
[V:1] G2B3AG2- | 
[V:2] z4B4 :
[V:3] z8 | 
[V:4] E,D,G,3F,G,2 | 
[V:1] G2^F2G4 | 
[V:2] A4G4- :
[V:3] F4D4 | 
[V:4] D,4G,,4 | 
[V:1] z8 | 
[V:2] G4F4 | 
[V:3] E4D4 | 
[V:4] C,4D,2D,2- | 
[V:1] z2G2F2A2- | 
[V:2] E4D4 :
[V:3] z8 | 
[V:4] D,^C,C,=B,,D,2F,2- | 
[V:1] AGF4ED | 
[V:2] F8 :
[V:3] z8 | 
[V:4] F,E,D,C,D,C,D,2 | 
[V:1] C2D4^C2 | 
[V:2] E8 | 
[V:3] z8 | 
[V:4] A,,2G,,2A,,2G,2 | 
[V:1] D8 | 
[V:2] D8- :
[V:3] z8 | 
[V:4] A,2B,2A,2z2 | 
[V:1] z8 | 
[V:2] D8 :
[V:3] F4D4 | 
[V:4] A,4B,4 | 
[V:1] z8 | 
[V:2] z4A4 | 
[V:3] E4D4 | 
[V:4] C4D4- | 
[V:1] z4E4 | 
[V:2] B4c4 :
[V:3] z8 | 
[V:4] D2CB,A,4 | 
[V:1] F4G4 | 
[V:2] d4c4 :
[V:3] z8 | 
[V:4] D,4z2E,2 | 
[V:1] A6GF | 
[V:2] A6B2 | 
[V:3] F4D4 | 
[V:4] F,3G,A,B,A,2- | 
[V:1] E2G2F2A2 | 
[V:2] c4d4 :
[V:3] E4D4 | 
[V:4] A,2G,2A,2F,2 | 
[V:1] G2B3AG2- | 
[V:2] G4B4 :
[V:3] z8 | 
[V:4] _E,4D,2E,2- | 
[V:1] G2^FEF4 | 
[V:2] A8 | 
[V:3] z4F4 | 
[V:4] E,2D,C,D,4 | 
[V:1] G8- | 
[V:2] G8- | 
[V:3] D4E4 | 
[V:4] G,,8- | 
[V:1] G8 |]  
[V:2] G8 |]  
[V:3] D8 |]  
[V:4] G,,8 |]  
